Numix/16/panel/kazam-countdown.svg

<?xml version="1.0" encoding="UTF-8" standalone="no"?>
<!-- Created with Inkscape (http://www.inkscape.org/) -->

<svg
   xmlns:dc="http://purl.org/dc/elements/1.1/"
   xmlns:cc="http://creativecommons.org/ns#"
   xmlns:rdf="http://www.w3.org/1999/02/22-rdf-syntax-ns#"
   xmlns:svg="http://www.w3.org/2000/svg"
   xmlns="http://www.w3.org/2000/svg"
   xmlns:sodipodi="http://sodipodi.sourceforge.net/DTD/sodipodi-0.dtd"
   xmlns:inkscape="http://www.inkscape.org/namespaces/inkscape"
   id="svg2"
   version="1.1"
   inkscape:version="0.91 r"
   width="16"
   height="16"
   viewBox="0 0 16 16"
   sodipodi:docname="kazam-countdown.svg">
  <metadata
     id="metadata8">
    <rdf:RDF>
      <cc:Work
         rdf:about="">
        <dc:format>image/svg+xml</dc:format>
        <dc:type
           rdf:resource="http://purl.org/dc/dcmitype/StillImage" />
        <dc:title />
      </cc:Work>
    </rdf:RDF>
  </metadata>
  <defs
     id="defs6" />
  <sodipodi:namedview
     pagecolor="#ffffff"
     bordercolor="#666666"
     borderopacity="1"
     objecttolerance="10"
     gridtolerance="10"
     guidetolerance="10"
     inkscape:pageopacity="0"
     inkscape:pageshadow="2"
     inkscape:window-width="1366"
     inkscape:window-height="747"
     id="namedview4"
     showgrid="true"
     inkscape:zoom="15.170654"
     inkscape:cx="-0.35356229"
     inkscape:cy="7.9603934"
     inkscape:window-x="0"
     inkscape:window-y="21"
     inkscape:window-maximized="1"
     inkscape:current-layer="svg2">
    <inkscape:grid
       type="xygrid"
       id="grid4138" />
  </sodipodi:namedview>
  <path
     style="color:#000000;font-style:normal;font-variant:normal;font-weight:normal;font-stretch:normal;font-size:medium;line-height:normal;font-family:sans-serif;text-indent:0;text-align:start;text-decoration:none;text-decoration-line:none;text-decoration-style:solid;text-decoration-color:#000000;letter-spacing:normal;word-spacing:normal;text-transform:none;direction:ltr;block-progression:tb;writing-mode:lr-tb;baseline-shift:baseline;text-anchor:start;white-space:normal;clip-rule:nonzero;display:inline;overflow:visible;visibility:visible;opacity:1;isolation:auto;mix-blend-mode:normal;color-interpolation:sRGB;color-interpolation-filters:linearRGB;solid-color:#000000;solid-opacity:1;fill:#ececec;fill-opacity:1;fill-rule:evenodd;stroke:none;stroke-width:1;stroke-linecap:butt;stroke-linejoin:round;stroke-miterlimit:4;stroke-dasharray:none;stroke-dashoffset:0;stroke-opacity:1;color-rendering:auto;image-rendering:auto;shape-rendering:auto;text-rendering:auto;enable-background:accumulate"
     d="M 1.45457,2.90911 C 1.2537483,2.9091301 1.0909551,3.0719233 1.090935,3.272745 l 0,9.45451 c 2.01e-5,0.200822 0.1628133,0.363615 0.363635,0.363635 l 8.72724,0 c 0.200822,-2e-5 0.363615,-0.162813 0.363635,-0.363635 l 0,-2.321014 3.838054,1.919027 c 0.241613,0.120118 0.525295,-0.05546 0.525566,-0.325283 l 0,-7.99997 C 14.908794,3.7301911 14.625112,3.5546151 14.383499,3.6747322 l -3.838054,1.9190268 0,-2.321014 C 10.545425,3.0719233 10.382632,2.9091301 10.18181,2.90911 l -8.72724,0 z m 4.36362,1.45454 c 0.298585,0 0.545453,0.2468677 0.545453,0.5454525 0,0.2985848 -0.246868,0.5454524 -0.545453,0.5454525 -0.2985848,0 -0.5454526,-0.2468677 -0.5454525,-0.5454525 C 5.2727374,4.6105177 5.5196052,4.3636499 5.81819,4.36365 Z M 3.6321186,5.2698966 c 0.1400638,0 0.2807965,0.053525 0.3863622,0.1590904 0.2111313,0.2111312 0.2111314,0.5601725 0,0.7713041 -0.2111316,0.2111309 -0.5601725,0.2111309 -0.7713038,0 -0.2111315,-0.2111316 -0.2111317,-0.5601727 0,-0.7713041 C 3.3527427,5.3234212 3.4920549,5.2698966 3.6321186,5.2698966 Z m 4.3721424,0 c 0.140064,0 0.279376,0.053525 0.384942,0.1590904 0.211131,0.2111314 0.211131,0.5601725 0,0.7713041 -0.211131,0.2111309 -0.560173,0.2111309 -0.771304,0 -0.211132,-0.2111316 -0.211131,-0.5601732 0,-0.7713041 C 7.723465,5.3234212 7.864198,5.2698966 8.004261,5.2698966 Z M 2.7272925,7.4545475 c 0.2985848,0 0.5454525,0.2468682 0.5454525,0.5454525 0,0.2985851 -0.2468677,0.5454525 -0.5454525,0.5454525 C 2.4287077,8.5454525 2.1818399,8.2985851 2.18184,8 2.1818399,7.7014157 2.4287077,7.4545475 2.7272925,7.4545475 Z m 6.1817955,0 C 9.207673,7.4545475 9.45454,7.7014149 9.45454,8 9.45454,8.2985851 9.207673,8.5454525 8.909088,8.5454525 8.610503,8.5454525 8.363635,8.2985851 8.363635,8 c 0,-0.2985851 0.246868,-0.5454525 0.545453,-0.5454525 z M 3.6321186,9.6420389 c 0.1400639,2.2e-6 0.2807967,0.052102 0.3863622,0.15767 0.2111315,0.2111321 0.2111313,0.5601721 0,0.7713041 -0.2111314,0.211132 -0.5601724,0.211132 -0.7713038,0 -0.2111312,-0.211131 -0.2111315,-0.560173 0,-0.7713041 0.1055655,-0.1055654 0.2448779,-0.15767 0.3849416,-0.15767 z m 4.3721424,0 c 0.140064,3.7e-6 0.279376,0.052102 0.384942,0.15767 0.211131,0.2111321 0.211131,0.5601721 0,0.7713041 -0.211132,0.211132 -0.560173,0.211132 -0.771304,0 -0.211131,-0.211131 -0.211132,-0.560172 0,-0.7713041 0.105566,-0.1055654 0.246299,-0.15767 0.386362,-0.15767 z M 5.81819,10.545445 c 0.298585,0 0.545453,0.246868 0.545453,0.545453 0,0.298585 -0.246868,0.545452 -0.545453,0.545452 -0.2985848,0 -0.5454526,-0.246867 -0.5454525,-0.545452 -1e-7,-0.298585 0.2468677,-0.545453 0.5454525,-0.545453 z"
     id="path4140"
     inkscape:connector-curvature="0" />
</svg>

<!-- Created with Inkscape (http://www.inkscape.org/) -->
<svg xmlns="http://www.w3.org/2000/svg" viewBox="0 0 16 16">
 <path d="m 1.455 2.909 c -0.201 0 -0.364 0.163 -0.364 0.364 l 0 9.455 c 0 0.201 0.163 0.364 0.364 0.364 l 8.727 0 c 0.201 0 0.364 -0.163 0.364 -0.364 l 0 -2.321 3.838 1.919 c 0.242 0.12 0.525 -0.055 0.526 -0.325 l 0 -8 c 0 -0.27 -0.284 -0.445 -0.526 -0.325 l -3.838 1.919 0 -2.321 c 0 -0.201 -0.163 -0.364 -0.364 -0.364 l -8.727 0 z m 4.364 1.455 c 0.299 0 0.545 0.247 0.545 0.545 0 0.299 -0.247 0.545 -0.545 0.545 -0.299 0 -0.545 -0.247 -0.545 -0.545 c 0 -0.299 0.247 -0.545 0.545 -0.545 m -2.186 0.906 c 0.14 0 0.281 0.054 0.386 0.159 0.211 0.211 0.211 0.56 0 0.771 -0.211 0.211 -0.56 0.211 -0.771 0 -0.211 -0.211 -0.211 -0.56 0 -0.771 c 0.106 -0.106 0.245 -0.159 0.385 -0.159 m 4.372 0 c 0.14 0 0.279 0.054 0.385 0.159 0.211 0.211 0.211 0.56 0 0.771 -0.211 0.211 -0.56 0.211 -0.771 0 -0.211 -0.211 -0.211 -0.56 0 -0.771 c 0.106 -0.106 0.246 -0.159 0.386 -0.159 m -5.277 2.185 c 0.299 0 0.545 0.247 0.545 0.545 0 0.299 -0.247 0.545 -0.545 0.545 c -0.299 0 -0.545 -0.247 -0.545 -0.545 0 -0.299 0.247 -0.545 0.545 -0.545 m 6.182 0 c 0.299 0 0.545 0.247 0.545 0.545 0 0.299 -0.247 0.545 -0.545 0.545 -0.299 0 -0.545 -0.247 -0.545 -0.545 c 0 -0.299 0.247 -0.545 0.545 -0.545 z m -5.277 2.187 c 0.14 0 0.281 0.052 0.386 0.158 0.211 0.211 0.211 0.56 0 0.771 -0.211 0.211 -0.56 0.211 -0.771 0 -0.211 -0.211 -0.211 -0.56 0 -0.771 0.106 -0.106 0.245 -0.158 0.385 -0.158 z m 4.372 0 c 0.14 0 0.279 0.052 0.385 0.158 0.211 0.211 0.211 0.56 0 0.771 -0.211 0.211 -0.56 0.211 -0.771 0 -0.211 -0.211 -0.211 -0.56 0 -0.771 0.106 -0.106 0.246 -0.158 0.386 -0.158 z m -2.186 0.903 c 0.299 0 0.545 0.247 0.545 0.545 0 0.299 -0.247 0.545 -0.545 0.545 -0.299 0 -0.545 -0.247 -0.545 -0.545 0 -0.299 0.247 -0.545 0.545 -0.545 z" mix-blend-mode="normal" isolation="auto" white-space="normal" solid-opacity="1" solid-color="#000000" style="visibility:visible;shape-rendering:auto;color-interpolation-filters:linearRGB;fill:#ececec;opacity:1;image-rendering:auto;fill-opacity:1;stroke:none;display:inline;color:#000;fill-rule:evenodd;color-rendering:auto;color-interpolation:sRGB"/>
</svg>
